X: 97
T: A Bhriogais Uallach
R: three-two
M: 3/2
K: Amixolydian
|:AAAB A2AB AGd2|deee c2Bc dcB2|deee A2AB AGd2|eAA2 (G2G)A BAA2:|
|:aeee edde eeg2|gaaa f2ef gfe2|deAB GAAA Bde2|gAA2 (G2G)A BdA2):|

